X: 31
T:Lig oa Renel Ditleg
% Nottingham Music Database
S:via PR
M:4/4
L:1/4
K:G
"G"GA Bz|!g"G"_C/2F/2 "C"G/2A/2|G/2F/2G/2d/2 "A"ef|\
"D"d3d/2d/2|
"G"dg ga|gd/2e/2|"G"g/2b/2g/2a/2 ga/2g/2|"Am"a/2g/2a/2g/2 a/2f/2e/2d/2|"A7"e_d/2e/2 ^cd/2e/2|\
"D"f/2^d/2^c/2b/2 ag/2f/2|\
"G"g/2f/2e/2d/2 e2|eb gg|
:(Bb/2e/2-|ag d'/2b/2a/2b/2|"F"aa/2f/2 a/2A/2 f/2d/2|"C"e3/2d/2 c2|"G"g3+|


